chains/blastsepolia/logo.svg

<svg xmlns="http://www.w3.org/2000/svg" fill="none" viewBox="14.6 46.1 185.8 122.8">
<path d="M161 106.4L190.3 91.8001L200.4 60.8001L180.2 46.1001H45.7L14.6 69.2001H172.7L164.3 95.2001H100.9L94.8 114.2H158.2L140.4 168.9L170.1 154.2L180.7 121.4L160.8 106.8L161 106.4Z" fill="#FCFC03"/>
<path d="M59.3 145.4L77.6 88.4002L57.3 73.2002L26.8 168.9H140.4L148 145.4H59.3Z" fill="#FCFC03"/>
</svg>

<svg xmlns="http://www.w3.org/2000/svg" fill="none" viewBox="14.6 46.1 185.8 122.8"><path fill="#FCFC03" d="m161 106.4 29.3-14.6 10.1-31-20.2-14.7H45.7L14.6 69.2h158.1l-8.4 26h-63.4l-6.1 19h63.4l-17.8 54.7 29.7-14.7 10.6-32.8-19.9-14.6z"/><path fill="#FCFC03" d="m59.3 145.4 18.3-57-20.3-15.2-30.5 95.7h113.6l7.6-23.5z"/></svg>
